svg/fluentui-system-icons/ic_fluent_shifts_add_20_regular.svg

<svg width="20" height="20" viewBox="0 0 20 20" fill="none" xmlns="http://www.w3.org/2000/svg">
<path d="M6 3C4.34315 3 3 4.34315 3 6V9.59971C3.31679 9.43777 3.65136 9.30564 4 9.20703V6C4 4.89543 4.89543 4 6 4H14C15.1046 4 16 4.89543 16 6V14C16 15.1046 15.1046 16 14 16H10.793C10.6944 16.3486 10.5622 16.6832 10.4003 17H14C15.6569 17 17 15.6569 17 14V6C17 4.34315 15.6569 3 14 3H6ZM5.5 19C7.98528 19 10 16.9853 10 14.5C10 12.0147 7.98528 10 5.5 10C3.01472 10 1 12.0147 1 14.5C1 16.9853 3.01472 19 5.5 19ZM5.5 12C5.77614 12 6 12.2239 6 12.5V14H7.5C7.77614 14 8 14.2239 8 14.5C8 14.7761 7.77614 15 7.5 15H6V16.5C6 16.7761 5.77614 17 5.5 17C5.22386 17 5 16.7761 5 16.5L5 15H3.5C3.22386 15 3 14.7761 3 14.5C3 14.2239 3.22386 14 3.5 14H5V12.5C5 12.2239 5.22386 12 5.5 12ZM11 6.5C11 6.22386 10.7761 6 10.5 6C10.2239 6 10 6.22386 10 6.5V9.5C10 9.77614 10.2239 10 10.5 10H12.5C12.7761 10 13 9.77614 13 9.5C13 9.22386 12.7761 9 12.5 9H11V6.5Z" fill="#212121"/>
</svg>

<svg xmlns="http://www.w3.org/2000/svg" width="20" height="20"><path d="M6 3a3 3 0 0 0-3 3v3.6a5.463 5.463 0 0 1 1-.393V6a2 2 0 0 1 2-2h8a2 2 0 0 1 2 2v8a2 2 0 0 1-2 2h-3.207c-.099.349-.23.683-.393 1H14a3 3 0 0 0 3-3V6a3 3 0 0 0-3-3H6Zm-.5 16a4.5 4.5 0 1 0 0-9 4.5 4.5 0 0 0 0 9Zm0-7a.5.5 0 0 1 .5.5V14h1.5a.5.5 0 0 1 0 1H6v1.5a.5.5 0 0 1-1 0V15H3.5a.5.5 0 0 1 0-1H5v-1.5a.5.5 0 0 1 .5-.5ZM11 6.5a.5.5 0 0 0-1 0v3a.5.5 0 0 0 .5.5h2a.5.5 0 0 0 0-1H11V6.5Z"/></svg>
